packages/icons/svg/Outline/printer.svg

<svg fill="none" height="24" viewBox="0 0 24 24" width="24" xmlns="http://www.w3.org/2000/svg"><path clip-rule="evenodd" d="m20 16.333c0 .368-.285.667-.637.667h-.863v-2c0-1.103-.897-2-2-2h-8.99998c-1.103 0-2 .897-2 2v2h-.863c-.352 0-.637-.299-.637-.667v-6.666c0-.368.285-.667.637-.667h1.363 2 7.99998 2 1.363c.352 0 .637.299.637.667zm-12.50002 2.667v-4h9.00002l.002 4zm.51401-13.99993h7.98601v1.99999h-7.99301zm11.34901 1.99993h-1.363v-2c0-1.103-.822-2-1.833-2h-8.334c-1.011 0-1.833.897-1.833 2v2h-1.363c-1.454 0-2.637 1.196-2.637 2.667v6.666c0 1.471 1.183 2.667 2.637 2.667h.863c0 1.103.897 2 2 2h9c1.103 0 2-.897 2-2h.863c1.454 0 2.637-1.196 2.637-2.667v-6.666c0-1.471-1.183-2.667-2.637-2.667z" fill="#6b7280" fill-rule="evenodd"/></svg>

<svg width="24" height="24" viewBox="0 0 24 24" fill="none" xmlns="http://www.w3.org/2000/svg">
<g id="Icon/Outline/printer">
<path id="Mask" fill-rule="evenodd" clip-rule="evenodd" d="M20 16.333C20 16.701 19.715 17 19.363 17H18.5V15C18.5 13.897 17.603 13 16.5 13H7.5C6.397 13 5.5 13.897 5.5 15V17H4.637C4.285 17 4 16.701 4 16.333V9.667C4 9.299 4.285 9 4.637 9H6H8H16H18H19.363C19.715 9 20 9.299 20 9.667V16.333ZM7.5 19V15H16.5L16.502 19H7.5ZM8.014 5H16V7H8.007L8.014 5ZM19.363 7H18V5C18 3.897 17.178 3 16.167 3H7.833C6.822 3 6 3.897 6 5V7H4.637C3.183 7 2 8.196 2 9.667V16.333C2 17.804 3.183 19 4.637 19H5.5C5.5 20.103 6.397 21 7.5 21H16.5C17.603 21 18.5 20.103 18.5 19H19.363C20.817 19 22 17.804 22 16.333V9.667C22 8.196 20.817 7 19.363 7Z" fill="#000000"/>
</g>
</svg>
